static/images/mobile/copyright/wikimedia.svg

<?xml version="1.0" encoding="UTF-8"?>
<svg xmlns="http://www.w3.org/2000/svg" width="50" height="50" viewBox="0 0 50 50">
	<title>
		wikimedia-logo
	</title>
	<g id="wikimedia-logo" fill="#000" fill-rule="nonzero" stroke="none" stroke-width="1">
		<path id="Path" d="M27.1280992 40.2892562C34.5454545 39.2355372 40.2479339 32.8719008 40.2479339 25.1446281 40.2479339 20.4545455 38.1404959 16.2603306 34.8140496 13.4710744L27.107438 21.177686 27.107438 40.2892562 27.1280992 40.2892562zM22.8099174 40.2892562L22.8099174 21.177686 15.1033058 13.4710744C11.7768595 16.2809917 9.66942149 20.4752066 9.66942149 25.1446281 9.69008264 32.8512397 15.392562 39.2355372 22.8099174 40.2892562z"/>
		<path id="Path" d="M38.2644628,11.8595041 C41.8181818,15.4132231 43.7603306,20.1239669 43.7603306,25.1446281 C43.7603306,30.1652893 41.7975207,34.8760331 38.2644628,38.4297521 C34.7107438,41.9834711 30,43.9256198 24.9793388,43.9256198 C19.9586777,43.9256198 15.2479339,41.9628099 11.6942149,38.4297521 C8.14049587,34.8966942 6.19834711,30.1652893 6.19834711,25.1446281 C6.19834711,20.1239669 8.16115702,15.4132231 11.6942149,11.8595041 C12.0041322,11.5495868 12.3140496,11.2603306 12.6239669,10.9917355 L8.32644628,6.69421488 C8.01652893,6.98347107 7.70661157,7.27272727 7.39669421,7.58264463 C5.12396694,9.8553719 3.32644628,12.5206612 2.0661157,15.4752066 C0.76446281,18.5330579 0.103305785,21.7975207 0.103305785,25.1446281 C0.103305785,28.4917355 0.76446281,31.7561983 2.0661157,34.8140496 C3.32644628,37.768595 5.10330579,40.4338843 7.39669421,42.7066116 C9.66942149,44.9793388 12.3347107,46.7768595 15.2892562,48.0371901 C18.3471074,49.338843 21.6115702,50 24.9586777,50 C28.3057851,50 31.5702479,49.338843 34.6280992,48.0371901 C37.5826446,46.7768595 40.2479339,45 42.5206612,42.7066116 C44.7933884,40.4338843 46.5909091,37.768595 47.8512397,34.8140496 C49.1528926,31.7561983 49.8140496,28.4917355 49.8140496,25.1446281 C49.8140496,21.7975207 49.1528926,18.5330579 47.8512397,15.4752066 C46.5909091,12.5206612 44.8140496,9.8553719 42.5206612,7.58264463 C42.2107438,7.27272727 41.9008264,6.98347107 41.5909091,6.69421488 L37.2933884,10.9917355 C37.6446281,11.2603306 37.9545455,11.5495868 38.2644628,11.8595041 Z"/>
		<circle id="red_circle_46_" cx="24.979" cy="7.913" r="7.748"/>
	</g>
</svg>

<svg xmlns="http://www.w3.org/2000/svg" width="50" height="50"><path d="M27.128 40.29c7.417-1.054 13.12-7.418 13.12-15.145 0-4.69-2.108-8.885-5.434-11.674l-7.707 7.707v19.111h.021zm-4.318 0V21.177l-7.707-7.707c-3.326 2.81-5.434 7.004-5.434 11.674.021 7.706 5.724 14.09 13.14 15.144z"/><path d="M38.264 11.86c3.554 3.553 5.496 8.264 5.496 13.285 0 5.02-1.962 9.731-5.496 13.285-3.553 3.553-8.264 5.496-13.285 5.496-5.02 0-9.731-1.963-13.285-5.496-3.554-3.533-5.496-8.265-5.496-13.285 0-5.021 1.963-9.732 5.496-13.285.31-.31.62-.6.93-.868L8.326 6.694c-.31.29-.62.579-.93.889a25 25 0 0 0-5.33 7.892 24.59 24.59 0 0 0-1.963 9.67c0 3.347.661 6.611 1.963 9.669 1.26 2.955 3.037 5.62 5.33 7.893a25 25 0 0 0 7.893 5.33A24.59 24.59 0 0 0 24.96 50a24.59 24.59 0 0 0 9.67-1.963c2.954-1.26 5.619-3.037 7.892-5.33a25 25 0 0 0 5.33-7.893 24.59 24.59 0 0 0 1.963-9.67 24.59 24.59 0 0 0-1.963-9.669c-1.26-2.954-3.037-5.62-5.33-7.892-.31-.31-.62-.6-.93-.889l-4.298 4.298a9.7 9.7 0 0 1 .971.868z"/><circle cx="24.979" cy="7.913" r="7.748"/></svg>
